Adwaita++-Light/panel/16/caps-lock-on.svg

<svg height="16" width="16" xmlns="http://www.w3.org/2000/svg">
  <path d="m3.625 1a1.7500384 1.6924769 0 0 0 -1.7402344 1.5058594l-.875 7.6152346a1.7500384 1.6924769 0 0 0 1.7402344 1.878906h10.5a1.7500384 1.6924769 0 0 0 1.740234-1.878906l-.875-7.6152346a1.7500384 1.6924769 0 0 0 -1.740234-1.5058594zm3.515625 2h1.7089844l2.1503906 6h-1.4101562l-.4511719-1h-2.2714844l-.4570313 1h-1.4101562zm.8515625 1.3378906-.8417969 2.6621094h1.6992188zm-6.9921875 7.9628904v.478516c0 1.0605.9084203 2.220703 1.96875 2.220703h10.0625c1.060417 0 1.96875-1.160203 1.96875-2.220703v-.478516c-.465463.424374-1.071928.697266-1.75.697266h-10.5c-.6777221 0-1.2848863-.272892-1.75-.697266z" fill="#444"/>
</svg>

<svg xmlns="http://www.w3.org/2000/svg" width="16" height="16" version="1.1">
 <defs>
  <style id="current-color-scheme" type="text/css">
   .ColorScheme-Text { color:#444444; } .ColorScheme-Highlight { color:#4285f4; }
  </style>
 </defs>
 <path style="fill:currentColor" class="ColorScheme-Text" d="M 3.625 1 A 1.7500384 1.6924769 0 0 0 1.8847656 2.5058594 L 1.0097656 10.121094 A 1.7500384 1.6924769 0 0 0 2.75 12 L 13.25 12 A 1.7500384 1.6924769 0 0 0 14.990234 10.121094 L 14.115234 2.5058594 A 1.7500384 1.6924769 0 0 0 12.375 1 L 3.625 1 z M 7.140625 3 L 8.8496094 3 L 11 9 L 9.5898438 9 L 9.1386719 8 L 6.8671875 8 L 6.4101562 9 L 5 9 L 7.140625 3 z M 7.9921875 4.3378906 L 7.1503906 7 L 8.8496094 7 L 7.9921875 4.3378906 z M 1 12.300781 L 1 12.779297 C 1 13.839797 1.9084203 15 2.96875 15 L 13.03125 15 C 14.091667 15 15 13.839797 15 12.779297 L 15 12.300781 C 14.534537 12.725155 13.928072 12.998047 13.25 12.998047 L 2.75 12.998047 C 2.0722779 12.998047 1.4651137 12.725155 1 12.300781 z"/>
</svg>
